X:38
T:Cornish Carol (Rouse Rouse)
%%VWML:SBG-1-2-511-0
F:http://www.vwml.org/record/SBG/1/2/511
Z:Original Sibelius transcriptions by M. & S. Graebe
M:3/2
I:linebreak $
K:G
V:1 treble nm="P1"
V:1
 G2 | B2 B2 A2 | G2 F2 E2 | (D c) B2 A2 | G4 A2 | (B3/2 c/) d2 (c B) |$ B2 A2 G2 | (F A) G F E2 | %8
 D4 | D2 | G2 G2 F2 | E2 E2 G2 |$ c2 c2 B2 | A4 d2 | B2 B2 A2 | G2 G2 B2 | e2 (e d) (c B) |$ %17
 B2 A2 d2 | B2 (B A) (G F) | (E F) G2 (A B) | c2 B2 A2 | G4 x2 | %22

